X:1
T:G Major           Daniel Belknap, 1806
T:Isaac Watts, 1707 (Hymn 41, Book 1)          86. 86. (C. M.)
T:Bradford
T:Treble-Tenor-Bass transcribed from The Village Compilation , 1806 ; Counter part written by B. C. Johnston, 2017..
%%score [ 1 2 3 4 ]
L:1/8
Q:1/4=90
M:2/4
K:G
V:1 treble nm="Tr." snm="Tr."
V:2 treble nm="C." snm="C."
V:3 treble-8 nm="T." snm="T."
V:4 bass nm="B." snm="B."
V:1
"^1. These glorious minds, how brigh they shine!  Whence  all  their  white  ar–ray?  How  came  they  to   the  happy   seats    Of      ev – er   –  las – ting   day?   From torturing" B2 | %1
 Bd dg | B2 B2 | Be dc | B2 d2 | dg d2 | cd e2 | d4 | d2 dg | dB B2 | Bd dB | A2 Bc | dg ge | %13
 d2 c2 | B4 | z4 | B2 BB | %17
"^1. pains  to  end –  less     joys   On  fie–ry  wheels  they    rode,   And strangely washed their raiment white   In  Jesus'       dy   –  ing  blood, In   Je          –          sus'  dying  blood." B3 B | %18
 Bd dc | B3 B | B2 B2 | Bd cB | (B2 !fermata!A2) | B2 AA | B3 B | B2 c2 | d3 e | d2 c2 | B2 A2 | %29
 A3 A | G/A/B/c/ de | d2 d2 | B4 |] %33
V:2
 G2 | GB BG | B2 B2 | BG Gc | B2 G2 | GB B2 | cB AG | A4 | B2 BG | GB G2 | BG GB | c2 BA | GE GA | %13
 B2 A2 | B4 | z4 | G2 GG | G3 G | Bd BA | G3 G | G2 G2 | Bd cB | (B2 !fermata!A2) | z4 | z4 | z4 | %26
 z4 | z4 | z4 | z2 z A | G/A/B/c/ dc | B2 A2 | G4 |] %33
V:3
"^2.  Now  they  ap – proach  a  spot – less   God,  And  bow  be – fore    his   throne,  Their  warbling  harps and sacred songs   A   –   dore   the         Ho – ly  One.  The  unveiled" G2 | %1
 GB Bd | d2 d2 | dg fa | g2 d2 | gd g2 | ed cB | A4 | B2 BB | Bd d2 | dg dB | e2 dc | Bd c2 | %13
 B2 A2 | G4 | z4 | z4 | %17
"^2.  glo – ries  of      his      face   A–mongst  his  saints  reside,     While the rich treasure  of   his  grace   Sees  all        their   wants  sup–plied, Sees all ______ their wants supplied." z4 | %18
 z4 | z4 | z4 | z4 | z4 | g2 ff | g3 d | gf e2 | d3 c | BG ge | d2 ^c2 | d3 B | g/e/d/c/ Bc | %31
 B2 A2 | G4 |] %33
V:4
"^3. Tor –men –ting  thirst  shall  leave their souls,  And  hunger   flee     as         fast;   The  fruit  of  life's  im – mor – tal    tree   Shall    be      their sweet  re–past.  The Lamb shall" G,2 | %1
 G,2 D,2 | G,2 G,2 | D,2 D,2 | G,2 G,2 | B,2 B,2 | CB, A,G, | D,4 | G,2 B,,D, | G,2 G,2 | %10
 G,B, B,2 | C2 B,A, | G,E, C,2 | D,2 D,2 | G,,4 | z4 | G,2 G,G, | %17
"^3. lead  his  heaven –ly flock  Where  living  fountains   rise;     And  love  di–vine  shall  wipe  away   The   sor – rows     of   their   eyes,  The  sor       –      rows    of  their  eyes." G,3 G, | %18
 G,B, B,A, | G,3 G, | G,2 G,2 | G,B, B,A, | !fermata!D,4 | G,2 D,D, | G,3 G, | G,2 A,2 | B,3 C | %27
 DB, C2 | B,G, A,2 | D,3 G, | E,2 C2 | D2 D,2 | [G,,G,]4 |] %33

